X: 244
T: Abbey Reel
R:reel
M:4/4
L:1/8
K:Ador
B|"Am"A3B A2GE|A2GA "G"BddB|"Am"A3B AGEF|"G" G2GA Bdd:|
g|"Em"egg2 "D"a2ba|"G"gabg "D"aged|"Em"egg2 "D"a2ga|"G"bgaf gedg|
"Em"egg2 "G"agbg|agbg "D"aged|"Em"egg2 "D"a2ga|"G"bgaf ged|]


